X:147
T:Hurdy Gurdy Waltz
C:No 147 Willaim Clarke of Feltwell
M:3/8
L:1/8
K:G
d|g/d/B/d/g/b/|ggb|ggb|a/f/d2|a/f/d/f/a/c'/|bbd'|g g/b/a/f/| g2:||
f/g/|/a/f/ dd'|b/d'/g2|a/f/ df| g/f/g/a/g|a/f/ dd'|b/d'/ g2|a/f/d/f/a/b/| g2:||
d'/c'/|bbb|b/c'/a/b/g|gg/a/b/c'/|d'2d'/c'/|bbb|b/c'/a/b/g|gg/b/a/f/|g2:||

